src/assets/svg/icons/fa/nuevos/classic/thin/location-exclamation classic thin.svg

<svg xmlns="http://www.w3.org/2000/svg" viewBox="0 0 384 512"><!--! Font Awesome Pro 6.4.0 by @fontawesome - https://fontawesome.com License - https://fontawesome.com/license (Commercial License) Copyright 2023 Fonticons, Inc. --><path d="M368 192c0-97.2-78.8-176-176-176S16 94.8 16 192c0 18.7 6.4 42.5 17.8 69.6c11.3 26.9 27.1 55.8 44.7 84.3c35.2 57 76.8 111.4 102.3 143.2c5.9 7.3 16.6 7.3 22.4 0c25.5-31.8 67.1-86.2 102.3-143.2c17.6-28.5 33.4-57.4 44.7-84.3C361.6 234.5 368 210.7 368 192zm16 0c0 87.4-117 243-168.3 307.2c-12.3 15.3-35.1 15.3-47.4 0C117 435 0 279.4 0 192C0 86 86 0 192 0S384 86 384 192zM192 96c4.4 0 8 3.6 8 8V264c0 4.4-3.6 8-8 8s-8-3.6-8-8V104c0-4.4 3.6-8 8-8zM176 320a16 16 0 1 1 32 0 16 16 0 1 1 -32 0z"/></svg>

<svg xmlns="http://www.w3.org/2000/svg" viewBox="0 0 384 512"><path d="M192 96C196.4 96 200 99.58 200 104V264C200 268.4 196.4 272 192 272C187.6 272 184 268.4 184 264V104C184 99.58 187.6 96 192 96zM208 320C208 328.8 200.8 336 192 336C183.2 336 176 328.8 176 320C176 311.2 183.2 304 192 304C200.8 304 208 311.2 208 320zM384 192C384 279.4 267 435 215.7 499.2C203.4 514.5 180.6 514.5 168.3 499.2C116.1 435 0 279.4 0 192C0 85.96 85.96 0 192 0C298 0 384 85.96 384 192H384zM192 16C94.8 16 16 94.8 16 192C16 210.7 22.37 234.5 33.82 261.6C45.16 288.5 60.93 317.4 78.52 345.9C113.7 402.1 155.3 457.3 180.8 489.2C186.7 496.5 197.3 496.5 203.2 489.2C228.7 457.3 270.3 402.1 305.5 345.9C323.1 317.4 338.8 288.5 350.2 261.6C361.6 234.5 368 210.7 368 192C368 94.8 289.2 16 192 16H192z"/></svg>
